public/flags/PK.svg

<svg fill="none" height="53" viewBox="0 0 61 53" width="61" xmlns="http://www.w3.org/2000/svg" xmlns:xlink="http://www.w3.org/1999/xlink"><mask id="a" height="43" maskUnits="userSpaceOnUse" width="59" x="1" y="3"><rect fill="#fff" height="41.4393" rx="3.7125" stroke="#fff" stroke-width="1.06071" width="57.9393" x="1.53036" y="3.53036"/></mask><rect fill="#fff" height="41.4393" rx="3.7125" stroke="#f5f5f5" stroke-width="1.06071" width="57.9393" x="1.53036" y="3.53036"/><g clip-rule="evenodd" fill-rule="evenodd" mask="url(#a)"><path d="m60.0003 3h-42.1429v42.5h42.1429z" fill="#0a632f"/><path d="m50.8762 25.8449c-.2704 2.6576-1.3936 5.2112-3.379 7.2135-4.7323 4.7724-12.5712 4.6049-17.5085-.3743-4.9374-4.9792-5.1035-12.8845-.3712-17.657 1.9854-2.0022 4.5176-3.1349 7.1529-3.4076-.8301.4933-1.6158 1.1021-2.3332 1.8255-4.3021 4.3386-4.5149 11.1583-.4753 15.2321 4.0397 4.0739 10.802 3.8593 15.1042-.4793.7173-.7234 1.3209-1.5158 1.8101-2.3529zm-5.4315-5.6224-.6706 4.0342-1.8739-3.6278-4.0117.6035 2.8422-2.9183-1.8089-3.6612 3.6305 1.8241 2.8938-2.8662-.5984 4.0457 3.5973 1.8898z" fill="#fff"/></g></svg>

<svg width="61" height="53" viewBox="0 0 61 53" fill="none" xmlns="http://www.w3.org/2000/svg">
<rect x="1.53036" y="3.53036" width="57.9393" height="41.4393" rx="3.7125" fill="white" stroke="#F5F5F5" stroke-width="1.06071"/>
<mask id="mask0" mask-type="alpha" maskUnits="userSpaceOnUse" x="1" y="3" width="59" height="43">
<rect x="1.53036" y="3.53036" width="57.9393" height="41.4393" rx="3.7125" fill="white" stroke="white" stroke-width="1.06071"/>
</mask>
<g mask="url(#mask0)">
<path fill-rule="evenodd" clip-rule="evenodd" d="M60.0003 3H17.8574V45.5H60.0003V3Z" fill="#0A632F"/>
<path fill-rule="evenodd" clip-rule="evenodd" d="M50.8762 25.8449C50.6058 28.5025 49.4826 31.0561 47.4972 33.0584C42.7649 37.8308 34.926 37.6633 29.9887 32.6841C25.0513 27.7049 24.8852 19.7996 29.6175 15.0271C31.6029 13.0249 34.1351 11.8922 36.7704 11.6195C35.9403 12.1128 35.1546 12.7216 34.4372 13.445C30.1351 17.7836 29.9223 24.6033 33.9619 28.6771C38.0016 32.751 44.7639 32.5364 49.0661 28.1978C49.7834 27.4744 50.387 26.682 50.8762 25.8449V25.8449ZM45.4447 20.2225L44.7741 24.2567L42.9002 20.6289L38.8885 21.2324L41.7307 18.3141L39.9218 14.6529L43.5523 16.477L46.4461 13.6108L45.8477 17.6565L49.445 19.5463L45.4447 20.2225V20.2225Z" fill="white"/>
</g>
</svg>
